svg/color/crs.svg

<?xml version="1.0" encoding="UTF-8" ?>
<!DOCTYPE svg PUBLIC "-//W3C//DTD SVG 1.1//EN" "http://www.w3.org/Graphics/SVG/1.1/DTD/svg11.dtd">
<svg width="250pt" height="250pt" viewBox="0 0 250 250" version="1.1" xmlns="http://www.w3.org/2000/svg">
<g id="#ffffffff">
<path fill="#ffffff" opacity="1.00" d=" M 0.00 0.00 L 250.00 0.00 L 250.00 250.00 L 0.00 250.00 L 0.00 0.00 M 107.42 7.83 C 83.73 11.32 61.23 22.27 43.86 38.75 C 23.98 57.31 10.82 82.90 7.50 109.91 C 3.89 137.45 10.36 166.22 25.61 189.45 C 41.13 213.40 65.51 231.51 93.06 239.10 C 117.90 246.09 145.03 244.65 168.98 235.02 C 198.76 223.21 223.23 198.73 235.03 168.95 C 245.21 143.67 246.19 114.86 237.86 88.92 C 229.54 62.57 211.52 39.52 188.17 24.79 C 164.46 9.65 135.21 3.62 107.42 7.83 Z" />
<path fill="#ffffff" opacity="1.00" d=" M 121.31 46.27 C 123.54 44.81 126.39 44.90 128.58 46.38 C 150.55 58.76 172.61 71.00 194.58 83.39 C 198.38 85.01 198.14 90.81 194.36 92.31 C 173.86 103.84 153.28 115.27 132.78 126.82 C 130.23 128.20 127.80 129.95 124.94 130.61 C 122.03 130.09 119.59 128.26 117.02 126.91 C 97.45 115.88 77.82 104.95 58.23 93.97 C 58.23 98.00 57.92 102.06 58.42 106.07 C 58.73 108.28 61.00 109.32 62.67 110.40 C 80.67 120.42 98.63 130.50 116.60 140.57 C 119.34 142.05 121.93 143.91 124.93 144.85 C 128.14 143.66 130.97 141.65 133.99 140.04 C 152.79 129.57 171.51 118.93 190.35 108.55 C 193.04 106.61 197.30 108.52 197.23 111.96 C 197.40 116.97 197.66 122.06 196.96 127.05 C 196.29 130.77 193.28 133.44 190.06 135.08 C 171.01 145.67 152.01 156.34 133.01 167.00 C 130.41 168.36 127.98 170.26 125.05 170.82 C 122.25 170.64 119.97 168.77 117.56 167.53 C 96.08 155.44 74.56 143.41 53.04 131.39 C 54.04 129.74 55.01 128.07 56.01 126.43 C 76.23 137.69 96.40 149.03 116.59 160.32 C 119.34 161.80 121.92 163.66 124.90 164.67 C 127.86 163.54 130.48 161.70 133.27 160.21 C 151.19 150.20 169.08 140.12 187.04 130.16 C 188.66 129.11 190.79 128.19 191.26 126.11 C 191.80 122.26 191.47 118.35 191.48 114.48 C 169.29 126.78 147.29 139.45 124.97 151.53 C 122.60 150.43 120.27 149.26 117.99 147.99 C 98.14 136.82 78.23 125.75 58.38 114.59 C 54.89 112.76 52.50 109.08 52.42 105.12 C 52.27 99.39 52.32 93.66 52.37 87.93 C 51.94 83.98 56.44 82.81 59.07 81.08 C 79.85 69.54 100.56 57.87 121.31 46.27 M 121.16 53.11 C 100.85 64.72 80.25 75.84 60.00 87.54 C 61.44 89.95 64.59 90.64 66.83 92.16 C 86.21 102.94 105.52 113.84 124.90 124.61 C 146.00 112.71 167.16 100.94 188.29 89.11 C 188.94 88.78 190.87 87.53 189.03 87.07 C 168.73 75.60 148.30 64.35 128.02 52.85 C 127.04 52.32 126.07 51.77 125.01 51.43 C 123.61 51.64 122.40 52.48 121.16 53.11 Z" />
<path fill="#ffffff" opacity="1.00" d=" M 104.50 174.57 C 105.75 174.07 108.59 175.55 106.96 176.96 C 105.89 180.43 101.27 176.19 104.50 174.57 Z" />
<path fill="#ffffff" opacity="1.00" d=" M 87.15 178.11 C 90.34 174.35 95.68 175.17 99.98 175.93 C 99.78 176.94 99.56 177.95 99.33 178.97 C 96.29 178.50 92.35 177.13 90.02 179.94 C 87.53 183.12 87.55 188.11 89.64 191.50 C 92.07 194.73 96.56 193.25 99.90 192.91 C 100.06 197.17 94.85 196.61 91.98 196.33 C 83.83 195.11 82.49 183.58 87.15 178.11 Z" />
<path fill="#ffffff" opacity="1.00" d=" M 103.63 180.54 C 104.70 180.52 105.77 180.51 106.85 180.49 C 106.87 185.75 106.87 191.01 106.85 196.26 C 106.05 196.26 104.44 196.26 103.64 196.26 C 103.62 191.02 103.63 185.78 103.63 180.54 Z" />
<path fill="#ffffff" opacity="1.00" d=" M 115.03 182.75 C 116.67 181.27 118.59 179.72 120.95 180.43 C 121.07 181.07 121.31 182.36 121.42 183.00 C 119.45 183.54 116.72 183.30 115.62 185.43 C 114.42 188.89 114.94 192.66 114.83 196.26 C 114.03 196.26 112.43 196.26 111.63 196.25 C 111.65 190.82 111.53 185.38 111.74 179.95 C 113.15 180.52 114.24 181.45 115.03 182.75 Z" />
<path fill="#ffffff" opacity="1.00" d=" M 124.29 180.54 C 124.86 180.51 126.00 180.45 126.57 180.41 C 126.74 181.02 127.10 182.22 127.27 182.83 C 129.13 181.30 131.29 180.26 133.70 179.93 C 133.66 180.96 133.63 181.99 133.59 183.03 C 131.54 183.47 128.74 183.60 127.96 185.99 C 127.15 189.44 127.68 193.05 127.52 196.57 C 126.76 196.43 125.25 196.14 124.49 196.00 C 123.99 190.87 124.39 185.69 124.29 180.54 Z" />
<path fill="#ffffff" opacity="1.00" d=" M 136.67 180.58 C 137.75 180.53 138.84 180.48 139.92 180.44 C 140.37 184.69 139.58 189.11 140.82 193.24 C 142.83 194.10 145.99 194.11 146.69 191.55 C 147.65 187.95 147.16 184.18 147.25 180.50 C 148.34 180.50 149.43 180.51 150.52 180.52 C 150.54 185.95 150.58 191.38 150.40 196.81 C 149.22 196.27 148.11 195.61 147.06 194.85 C 144.25 196.60 139.79 197.58 137.58 194.43 C 135.83 190.06 136.94 185.16 136.67 180.58 Z" />
<path fill="#ffffff" opacity="1.00" d=" M 154.32 185.04 C 154.00 179.33 162.33 179.22 165.77 181.76 C 163.93 185.08 159.51 181.95 156.64 183.80 C 158.98 186.18 162.20 187.23 164.88 189.10 C 166.95 191.55 165.26 195.75 162.07 196.21 C 159.08 196.59 154.23 197.41 153.74 193.28 C 156.58 193.33 159.64 194.43 162.37 193.18 C 162.82 188.49 154.53 189.76 154.32 185.04 Z" />
</g>
<g id="#3bb0baff">
<path fill="#3bb0ba" opacity="1.00" d=" M 107.42 7.83 C 135.21 3.62 164.46 9.65 188.17 24.79 C 211.52 39.52 229.54 62.57 237.86 88.92 C 246.19 114.86 245.21 143.67 235.03 168.95 C 223.23 198.73 198.76 223.21 168.98 235.02 C 145.03 244.65 117.90 246.09 93.06 239.10 C 65.51 231.51 41.13 213.40 25.61 189.45 C 10.36 166.22 3.89 137.45 7.50 109.91 C 10.82 82.90 23.98 57.31 43.86 38.75 C 61.23 22.27 83.73 11.32 107.42 7.83 M 121.31 46.27 C 100.56 57.87 79.85 69.54 59.07 81.08 C 56.44 82.81 51.94 83.98 52.37 87.93 C 52.32 93.66 52.27 99.39 52.42 105.12 C 52.50 109.08 54.89 112.76 58.38 114.59 C 78.23 125.75 98.14 136.82 117.99 147.99 C 120.27 149.26 122.60 150.43 124.97 151.53 C 147.29 139.45 169.29 126.78 191.48 114.48 C 191.47 118.35 191.80 122.26 191.26 126.11 C 190.79 128.19 188.66 129.11 187.04 130.16 C 169.08 140.12 151.19 150.20 133.27 160.21 C 130.48 161.70 127.86 163.54 124.90 164.67 C 121.92 163.66 119.34 161.80 116.59 160.32 C 96.40 149.03 76.23 137.69 56.01 126.43 C 55.01 128.07 54.04 129.74 53.04 131.39 C 74.56 143.41 96.08 155.44 117.56 167.53 C 119.97 168.77 122.25 170.64 125.05 170.82 C 127.98 170.26 130.41 168.36 133.01 167.00 C 152.01 156.34 171.01 145.67 190.06 135.08 C 193.28 133.44 196.29 130.77 196.96 127.05 C 197.66 122.06 197.40 116.97 197.23 111.96 C 197.30 108.52 193.04 106.61 190.35 108.55 C 171.51 118.93 152.79 129.57 133.99 140.04 C 130.97 141.65 128.14 143.66 124.93 144.85 C 121.93 143.91 119.34 142.05 116.60 140.57 C 98.63 130.50 80.67 120.42 62.67 110.40 C 61.00 109.32 58.73 108.28 58.42 106.07 C 57.92 102.06 58.23 98.00 58.23 93.97 C 77.82 104.95 97.45 115.88 117.02 126.91 C 119.59 128.26 122.03 130.09 124.94 130.61 C 127.80 129.95 130.23 128.20 132.78 126.82 C 153.28 115.27 173.86 103.84 194.36 92.31 C 198.14 90.81 198.38 85.01 194.58 83.39 C 172.61 71.00 150.55 58.76 128.58 46.38 C 126.39 44.90 123.54 44.81 121.31 46.27 M 104.50 174.57 C 101.27 176.19 105.89 180.43 106.96 176.96 C 108.59 175.55 105.75 174.07 104.50 174.57 M 87.15 178.11 C 82.49 183.58 83.83 195.11 91.98 196.33 C 94.85 196.61 100.06 197.17 99.90 192.91 C 96.56 193.25 92.07 194.73 89.64 191.50 C 87.55 188.11 87.53 183.12 90.02 179.94 C 92.35 177.13 96.29 178.50 99.33 178.97 C 99.56 177.95 99.78 176.94 99.98 175.93 C 95.68 175.17 90.34 174.35 87.15 178.11 M 103.63 180.54 C 103.63 185.78 103.62 191.02 103.64 196.26 C 104.44 196.26 106.05 196.26 106.85 196.26 C 106.87 191.01 106.87 185.75 106.85 180.49 C 105.77 180.51 104.70 180.52 103.63 180.54 M 115.03 182.75 C 114.24 181.45 113.15 180.52 111.74 179.95 C 111.53 185.38 111.65 190.82 111.63 196.25 C 112.43 196.26 114.03 196.26 114.83 196.26 C 114.94 192.66 114.42 188.89 115.62 185.43 C 116.72 183.30 119.45 183.54 121.42 183.00 C 121.31 182.36 121.07 181.07 120.95 180.43 C 118.59 179.72 116.67 181.27 115.03 182.75 M 124.29 180.54 C 124.39 185.69 123.99 190.87 124.49 196.00 C 125.25 196.14 126.76 196.43 127.52 196.57 C 127.68 193.05 127.15 189.44 127.96 185.99 C 128.74 183.60 131.54 183.47 133.59 183.03 C 133.63 181.99 133.66 180.96 133.70 179.93 C 131.29 180.26 129.13 181.30 127.27 182.83 C 127.10 182.22 126.74 181.02 126.57 180.41 C 126.00 180.45 124.86 180.51 124.29 180.54 M 136.67 180.58 C 136.94 185.16 135.83 190.06 137.58 194.43 C 139.79 197.58 144.25 196.60 147.06 194.85 C 148.11 195.61 149.22 196.27 150.40 196.81 C 150.58 191.38 150.54 185.95 150.52 180.52 C 149.43 180.51 148.34 180.50 147.25 180.50 C 147.16 184.18 147.65 187.95 146.69 191.55 C 145.99 194.11 142.83 194.10 140.82 193.24 C 139.58 189.11 140.37 184.69 139.92 180.44 C 138.84 180.48 137.75 180.53 136.67 180.58 M 154.32 185.04 C 154.53 189.76 162.82 188.49 162.37 193.18 C 159.64 194.43 156.58 193.33 153.74 193.28 C 154.23 197.41 159.08 196.59 162.07 196.21 C 165.26 195.75 166.95 191.55 164.88 189.10 C 162.20 187.23 158.98 186.18 156.64 183.80 C 159.51 181.95 163.93 185.08 165.77 181.76 C 162.33 179.22 154.00 179.33 154.32 185.04 Z" />
<path fill="#3bb0ba" opacity="1.00" d=" M 121.16 53.11 C 122.40 52.48 123.61 51.64 125.01 51.43 C 126.07 51.77 127.04 52.32 128.02 52.85 C 148.30 64.35 168.73 75.60 189.03 87.07 C 190.87 87.53 188.94 88.78 188.29 89.11 C 167.16 100.94 146.00 112.71 124.90 124.61 C 105.52 113.84 86.21 102.94 66.83 92.16 C 64.59 90.64 61.44 89.95 60.00 87.54 C 80.25 75.84 100.85 64.72 121.16 53.11 Z" />
</g>
</svg>

<?xml version="1.0" encoding="utf-8"?>
<!-- Generator: Adobe Illustrator 26.0.3, SVG Export Plug-In . SVG Version: 6.00 Build 0)  -->
<svg version="1.1" id="Layer_1" xmlns="http://www.w3.org/2000/svg" xmlns:xlink="http://www.w3.org/1999/xlink" x="0px" y="0px"
	 viewBox="0 0 250 250" style="enable-background:new 0 0 250 250;" xml:space="preserve">
<style type="text/css">
	.st0{fill:#FFFFFF;}
	.st1{fill:#3BB0BA;}
</style>
<g id="_x23_ffffffff">
	<path class="st0" d="M121.3,46.3c2.2-1.5,5.1-1.4,7.3,0.1c22,12.4,44,24.6,66,37c3.8,1.6,3.6,7.4-0.2,8.9
		c-20.5,11.5-41.1,23-61.6,34.5c-2.6,1.4-5,3.1-7.8,3.8c-2.9-0.5-5.4-2.4-7.9-3.7c-19.6-11-39.2-22-58.8-32.9c0,4-0.3,8.1,0.2,12.1
		c0.3,2.2,2.6,3.2,4.2,4.3c18,10,36,20.1,53.9,30.2c2.7,1.5,5.3,3.3,8.3,4.3c3.2-1.2,6-3.2,9.1-4.8c18.8-10.5,37.5-21.1,56.4-31.5
		c2.7-1.9,6.9,0,6.9,3.4c0.2,5,0.4,10.1-0.3,15.1c-0.7,3.7-3.7,6.4-6.9,8C171,145.7,152,156.3,133,167c-2.6,1.4-5,3.3-8,3.8
		c-2.8-0.2-5.1-2.1-7.5-3.3c-21.5-12.1-43-24.1-64.5-36.1c1-1.6,2-3.3,3-5c20.2,11.3,40.4,22.6,60.6,33.9c2.8,1.5,5.3,3.3,8.3,4.3
		c3-1.1,5.6-3,8.4-4.5c17.9-10,35.8-20.1,53.8-30.1c1.6-1.1,3.8-2,4.2-4.1c0.5-3.8,0.2-7.8,0.2-11.6c-22.2,12.3-44.2,25-66.5,37
		c-2.4-1.1-4.7-2.3-7-3.5c-19.8-11.2-39.8-22.2-59.6-33.4c-3.5-1.8-5.9-5.5-6-9.5c-0.1-5.7-0.1-11.5,0-17.2
		c-0.4-3.9,4.1-5.1,6.7-6.8C79.8,69.5,100.6,57.9,121.3,46.3 M121.2,53.1C100.8,64.7,80.2,75.8,60,87.5c1.4,2.4,4.6,3.1,6.8,4.6
		c19.4,10.8,38.7,21.7,58.1,32.4c21.1-11.9,42.3-23.7,63.4-35.5c0.7-0.3,2.6-1.6,0.7-2c-20.3-11.5-40.7-22.7-61-34.2
		c-1-0.5-2-1.1-3-1.4C123.6,51.6,122.4,52.5,121.2,53.1z"/>
	<path class="st0" d="M104.5,174.6c1.2-0.5,4.1,1,2.5,2.4C105.9,180.4,101.3,176.2,104.5,174.6z"/>
	<path class="st0" d="M87.2,178.1c3.2-3.8,8.5-2.9,12.8-2.2c-0.2,1-0.4,2-0.7,3c-3-0.5-7-1.8-9.3,1c-2.5,3.2-2.5,8.2-0.4,11.6
		c2.4,3.2,6.9,1.8,10.3,1.4c0.2,4.3-5.1,3.7-7.9,3.4C83.8,195.1,82.5,183.6,87.2,178.1z"/>
	<path class="st0" d="M103.6,180.5c1.1,0,2.1,0,3.2,0c0,5.3,0,10.5,0,15.8c-0.8,0-2.4,0-3.2,0C103.6,191,103.6,185.8,103.6,180.5z"
		/>
	<path class="st0" d="M115,182.8c1.6-1.5,3.6-3,5.9-2.3c0.1,0.6,0.4,1.9,0.5,2.6c-2,0.5-4.7,0.3-5.8,2.4c-1.2,3.5-0.7,7.2-0.8,10.8
		c-0.8,0-2.4,0-3.2,0c0-5.4-0.1-10.9,0.1-16.3C113.2,180.5,114.2,181.4,115,182.8z"/>
	<path class="st0" d="M124.3,180.5c0.6,0,1.7-0.1,2.3-0.1c0.2,0.6,0.5,1.8,0.7,2.4c1.9-1.5,4-2.6,6.4-2.9c0,1-0.1,2.1-0.1,3.1
		c-2.1,0.4-4.8,0.6-5.6,3c-0.8,3.4-0.3,7.1-0.4,10.6c-0.8-0.1-2.3-0.4-3-0.6C124,190.9,124.4,185.7,124.3,180.5z"/>
	<path class="st0" d="M136.7,180.6c1.1-0.1,2.2-0.1,3.2-0.1c0.4,4.2-0.3,8.7,0.9,12.8c2,0.9,5.2,0.9,5.9-1.7c1-3.6,0.5-7.4,0.6-11.1
		c1.1,0,2.2,0,3.3,0c0,5.4,0.1,10.9-0.1,16.3c-1.2-0.5-2.3-1.2-3.3-2c-2.8,1.8-7.3,2.7-9.5-0.4C135.8,190.1,136.9,185.2,136.7,180.6
		z"/>
	<path class="st0" d="M154.3,185c-0.3-5.7,8-5.8,11.4-3.3c-1.8,3.3-6.3,0.2-9.1,2c2.3,2.4,5.6,3.4,8.2,5.3c2.1,2.4,0.4,6.6-2.8,7.1
		c-3,0.4-7.8,1.2-8.3-2.9c2.8,0.1,5.9,1.1,8.6-0.1C162.8,188.5,154.5,189.8,154.3,185z"/>
</g>
<g id="_x23_3bb0baff">
	<path class="st1" d="M107.4,7.8c27.8-4.2,57,1.8,80.8,17c23.4,14.7,41.4,37.8,49.7,64.1c8.3,25.9,7.4,54.8-2.8,80
		c-11.8,29.8-36.3,54.3-66.1,66.1c-23.9,9.6-51.1,11.1-75.9,4.1c-27.5-7.6-51.9-25.7-67.4-49.7c-15.3-23.2-21.7-52-18.1-79.5
		c3.3-27,16.5-52.6,36.4-71.2C61.2,22.3,83.7,11.3,107.4,7.8 M121.3,46.3c-20.8,11.6-41.5,23.3-62.2,34.8c-2.6,1.7-7.1,2.9-6.7,6.8
		c0,5.7-0.1,11.5,0,17.2c0.1,4,2.5,7.6,6,9.5c19.9,11.2,39.8,22.2,59.6,33.4c2.3,1.3,4.6,2.4,7,3.5c22.3-12.1,44.3-24.8,66.5-37
		c0,3.9,0.3,7.8-0.2,11.6c-0.5,2.1-2.6,3-4.2,4.1c-18,10-35.8,20-53.8,30.1c-2.8,1.5-5.4,3.3-8.4,4.5c-3-1-5.6-2.9-8.3-4.3
		C96.4,149,76.2,137.7,56,126.4c-1,1.6-2,3.3-3,5c21.5,12,43,24.1,64.5,36.1c2.4,1.2,4.7,3.1,7.5,3.3c2.9-0.6,5.4-2.5,8-3.8
		c19-10.7,38-21.3,57.1-31.9c3.2-1.6,6.2-4.3,6.9-8c0.7-5,0.4-10.1,0.3-15.1c0.1-3.4-4.2-5.3-6.9-3.4c-18.8,10.4-37.6,21-56.4,31.5
		c-3,1.6-5.9,3.6-9.1,4.8c-3-0.9-5.6-2.8-8.3-4.3c-18-10.1-35.9-20.2-53.9-30.2c-1.7-1.1-3.9-2.1-4.2-4.3c-0.5-4-0.2-8.1-0.2-12.1
		c19.6,11,39.2,21.9,58.8,32.9c2.6,1.3,5,3.2,7.9,3.7c2.9-0.7,5.3-2.4,7.8-3.8c20.5-11.6,41.1-23,61.6-34.5c3.8-1.5,4-7.3,0.2-8.9
		c-22-12.4-44-24.6-66-37C126.4,44.9,123.5,44.8,121.3,46.3 M104.5,174.6c-3.2,1.6,1.4,5.9,2.5,2.4
		C108.6,175.6,105.8,174.1,104.5,174.6 M87.2,178.1c-4.7,5.5-3.3,17,4.8,18.2c2.9,0.3,8.1,0.8,7.9-3.4c-3.3,0.3-7.8,1.8-10.3-1.4
		c-2.1-3.4-2.1-8.4,0.4-11.6c2.3-2.8,6.3-1.4,9.3-1c0.2-1,0.4-2,0.7-3C95.7,175.2,90.3,174.4,87.2,178.1 M103.6,180.5
		c0,5.2,0,10.5,0,15.7c0.8,0,2.4,0,3.2,0c0-5.2,0-10.5,0-15.8C105.8,180.5,104.7,180.5,103.6,180.5 M115,182.8
		c-0.8-1.3-1.9-2.2-3.3-2.8c-0.2,5.4-0.1,10.9-0.1,16.3c0.8,0,2.4,0,3.2,0c0.1-3.6-0.4-7.4,0.8-10.8c1.1-2.1,3.8-1.9,5.8-2.4
		c-0.1-0.6-0.3-1.9-0.5-2.6C118.6,179.7,116.7,181.3,115,182.8 M124.3,180.5c0.1,5.2-0.3,10.3,0.2,15.5c0.8,0.1,2.3,0.4,3,0.6
		c0.2-3.5-0.4-7.1,0.4-10.6c0.8-2.4,3.6-2.5,5.6-3c0-1,0.1-2.1,0.1-3.1c-2.4,0.3-4.6,1.4-6.4,2.9c-0.2-0.6-0.5-1.8-0.7-2.4
		C126,180.4,124.9,180.5,124.3,180.5 M136.7,180.6c0.3,4.6-0.8,9.5,0.9,13.8c2.2,3.2,6.7,2.2,9.5,0.4c1.1,0.8,2.2,1.4,3.3,2
		c0.2-5.4,0.1-10.9,0.1-16.3c-1.1,0-2.2,0-3.3,0c-0.1,3.7,0.4,7.4-0.6,11.1c-0.7,2.6-3.9,2.6-5.9,1.7c-1.2-4.1-0.5-8.6-0.9-12.8
		C138.8,180.5,137.8,180.5,136.7,180.6 M154.3,185c0.2,4.7,8.5,3.5,8,8.1c-2.7,1.2-5.8,0.2-8.6,0.1c0.5,4.1,5.3,3.3,8.3,2.9
		c3.2-0.5,4.9-4.7,2.8-7.1c-2.7-1.9-5.9-2.9-8.2-5.3c2.9-1.9,7.3,1.3,9.1-2C162.3,179.2,154,179.3,154.3,185z"/>
	<path class="st1" d="M121.2,53.1c1.2-0.6,2.4-1.5,3.8-1.7c1.1,0.3,2,0.9,3,1.4c20.3,11.5,40.7,22.8,61,34.2c1.8,0.5-0.1,1.7-0.7,2
		c-21.1,11.8-42.3,23.6-63.4,35.5c-19.4-10.8-38.7-21.7-58.1-32.4c-2.2-1.5-5.4-2.2-6.8-4.6C80.2,75.8,100.8,64.7,121.2,53.1z"/>
</g>
</svg>
